X:1
T:Get Up, Jack; John Sit Down
M:4/4
L:1/4
K:G
 G G B G| F G A A| d d/2c/2 A F| G2 z D| G G B G| F G A A| d d c F|\
 G2 z d| d d d c| c c B A/2A/2| G G F E| D2 z D/2D/2| G G B B/2G/2|\
 F G A A| d d A F| G2 z B/2c/2| d d/2d/2 d c| c/2c/2 c B A| G G G G/2E/2|\
 D2 z D| G3/2 B/2 A G| F G AB/2-c/2| dd/2-B/2 c A| G2 z||
